icons/Media/gallery-upload-fill.svg

<svg viewBox="0 0 24 24" xmlns="http://www.w3.org/2000/svg"><path d="M8 1V3H16V1H18V3H21.0082C21.556 3 22 3.44495 22 3.9934V20.0066C22 20.5552 21.5447 21 21.0082 21H2.9918C2.44405 21 2 20.5551 2 20.0066V3.9934C2 3.44476 2.45531 3 2.9918 3H6V1H8ZM12 8L8 12H11V16H13V12H16L12 8Z"/></svg>

<svg xmlns="http://www.w3.org/2000/svg" viewBox="0 0 24 24">
    <g>
        <path fill="none" d="M0 0h24v24H0z"/>
        <path d="M8 1v2h8V1h2v2h3.008c.548 0 .992.445.992.993v16.014a1 1 0 0 1-.992.993H2.992A.993.993 0 0 1 2 20.007V3.993A1 1 0 0 1 2.992 3H6V1h2zm4 7l-4 4h3v4h2v-4h3l-4-4z"/>
    </g>
</svg>
